X: 4
T: The Yellow Wattle
T: An Chleith Bui
R: jig
M: 6/8
L: 1/8
K: Dmix
"Dm"dcA "C"AGE|"Dm"ABA ABc|dcA "C"ABc|"Dm"dcA GED|
"Dm"dcA "C"AGE|"Dm"ABA AGE|"Dm"DED "C"cde|1 "Dm"dcA GED:|2 "Dm"dcA GAc:|]
"Dm"ded "C"c3|"Dm"ded "C"c3|"Dm"ded "C"cde|"Dm"dcA GED|
"Dm"ded "C"c3|"Dm"ded cAG|ABA ABc|1 "Dm"dcA GAc:|2 "Dm"dcA "C"GED:|]



